Sources/FrostedUI/Resources/Icons.xcassets/telegramFilled20.imageset/telegram-filled-20.svg

<svg width="20" height="20" viewBox="0 0 20 20" fill="none" xmlns="http://www.w3.org/2000/svg" data-fui-icon="true">
  <path
    d="M17.1885 3.39148C17.3105 3.38941 17.5825 3.41942 17.7598 3.56238C17.9069 3.68276 17.948 3.84559 17.9688 3.95984C17.9872 4.0741 18.0128 4.33466 17.9922 4.53796C17.7712 6.86018 16.8113 12.4955 16.3232 15.0966C16.1184 16.197 15.711 16.5663 15.3174 16.6024C14.461 16.6809 13.8112 16.0383 12.9824 15.4969C11.6866 14.6497 10.9545 14.1224 9.69531 13.2958C8.24061 12.3404 9.18397 11.8149 10.0127 10.9569C10.229 10.7323 13.9999 7.31379 14.0713 7.00378C14.0805 6.96468 14.0899 6.82109 14.0029 6.745C13.9179 6.66872 13.7912 6.69409 13.6992 6.71472C13.568 6.7441 11.4982 8.10943 7.4834 10.8094C6.89652 11.2118 6.36448 11.4075 5.88574 11.3973C5.36086 11.3861 4.34752 11.101 3.59473 10.8573C2.67394 10.5583 1.93945 10.4003 2.00391 9.89246C2.03629 9.62818 2.40228 9.35731 3.09961 9.08093C7.39537 7.21578 10.2595 5.98655 11.6914 5.39246C15.7839 3.69631 16.6337 3.40144 17.1885 3.39148Z"
    fill="currentColor"
  />
</svg>

<svg xmlns="http://www.w3.org/2000/svg" width="20" height="20" fill="none" data-fui-icon="true" viewBox="0 0 20 20"><path fill="currentColor" d="M17.189 3.391c.122-.002.393.028.57.171a.63.63 0 0 1 .21.398c.018.114.044.375.023.578-.22 2.322-1.18 7.958-1.669 10.559-.205 1.1-.612 1.47-1.006 1.505-.856.079-1.506-.564-2.335-1.105-1.295-.847-2.027-1.375-3.287-2.201-1.454-.956-.511-1.481.318-2.34.216-.224 3.987-3.642 4.058-3.952.01-.04.019-.183-.068-.259-.085-.076-.212-.05-.304-.03-.131.03-2.2 1.394-6.216 4.094q-.88.605-1.597.588c-.525-.01-1.538-.296-2.291-.54-.921-.299-1.656-.457-1.591-.965q.049-.396 1.096-.811 6.444-2.797 8.591-3.689c4.093-1.696 4.943-1.99 5.498-2"/></svg>
